X:1
T:The Wreck of the Green Cove
M:2/4
L:1/8
K:D
 A| DF AF| GB A/2 G3/2| FA GF| ED CA,| DF AF| GB d/2d/2 d/2B/2| AA AF|\
 GD| D2-| D3 A| Bc d3/2 B/2| d3/2 B/2 AF| EG FE| DE A3/2 A/2| Bc dB|\
 dB AF| EG F3/2 E/2| FE D||
